X:1
T:Title
%%score { ( 1 5 ) | ( 2 3 4 ) }
L:1/8
Q:1/4=100
M:4/4
K:Eb
V:1 treble nm="Grand Piano"
V:5 treble 
V:2 bass 
V:3 bass 
V:4 bass 
V:1
 [G,EG]2 [G,EG]2 [G,EG]3 [G,DF] | [G,CE]2[K:bass] .[G,=B,D]2 [E,C]4 | %2
w: D.~B.~Towner * * *||
 [G,EG]2 [G,EG]2 [B,FA]3 [B,EG] | [B,DF]2 [=A,EF]2 [B,DF]4 | [B,EG]2 [B,FA]2 [EGB]3 [EGB] | %5
w: |||
 [CFA]2 [B,EG]2 [A,C]4 | [A,CF]2 [CFA]2 [B,EG]3 [A,CF] | [G,B,E]2 [F,B,D]2[K:treble] [G,B,E]4 | %8
w: |||
 [GB]3 [GB] [Ac]B[FA]G | [DA]6 z2 | [FA]2 z2 z4 |[M:3/4] [EG]6 |[M:1/4] G[FA] | %13
w: |||||
[M:4/4] [GB]3 [GB] [FA]2 [EG]2 | [Ec]6 z2 | [B,EG]2 [G,B,E]2 [A,DF]3 [G,E] | [G,E]6 z2 |] %17
w: ||||
V:2
 C,2 C,2 C,3 D, | E,2 z F, C,4 | C,2 C,2 D,3 E, | F,2 F,2 B,,4 | E,2 E,2 E,3 E, | E,2 E,2 A,,4 | %6
 A,,2 A,,2 B,,3 B,, | B,,2 B,,2 E,4 | [E,E]4 E-[EG] z E | F,F,F,D, B,,2 B,,D, | F,2 D,2 z2 D2 | %11
[M:3/4] E,2 E,2 E,2 |[M:1/4] [E,B,E][E,B,] |[M:4/4] [E,E]4 C2 B,2 | [A,,A,]2 A,,2 A,,2 A,,A,, | %15
 B,,2 B,,2 B,,3 E, | E,6 z2 |] %17
V:3
 x8 | z2 G,,2 z4 | x8 | x8 | x8 | x8 | x8 | x8 | z4 z2 B,2 | x8 | z4 [B,,F,]4 |[M:3/4] x6 | %12
[M:1/4] x2 |[M:4/4] z4 E,4 | x8 | x8 | x8 |] %17
V:4
 x8 | x8 | x8 | x8 | x8 | x8 | x8 | x8 | z4 E,4 | x8 | x8 |[M:3/4] x6 |[M:1/4] x2 |[M:4/4] x8 | %14
 x8 | x8 | x8 |] %17
V:5
 x8 | x2[K:bass] x6 | x8 | x8 | x8 | x8 | x8 | x4[K:treble] x4 | x8 | B,B,B,B, B,2 [B,DA][B,FA] | %10
 B,2- [B,F]2 [DB]2 A2 |[M:3/4] z2 G,2 B,2 |[M:1/4] x2 |[M:4/4] x8 | z2 A,2 A,2 [CEA][CEA] | x8 | %16
 x8 |] %17

